X: 23689
T: Lios A' Cheoil
R: polka
M: 2/4
K: Dmajor
FA D>E|FA D>E|FA DE|FE EA|
FA D>E|FA d>e|f/e/d/B/ A/B/A/G/|FD D2:|
d>e fd|Bd AB|d>e fa|ge eA|
d>e fd|Bd AF|GB A/B/A/G/|FD D2:|

